static/images/mobile/copyright/wikipedia-wordmark-wa.svg

<svg width="120" height="18" viewBox="0 0 120 18" fill="none" xmlns="http://www.w3.org/2000/svg">
<path fill-rule="evenodd" clip-rule="evenodd" d="M15.7019 0.899536C16.874 1.0631 16.7377 1.66278 15.9199 3.24377L14.4752 5.96965L14.3389 5.83336L13.0032 3.08023C12.2673 1.52649 12.1582 1.0631 13.3031 0.899536C13.4666 0.735977 13.4666 0.163559 13.3031 0C13.0367 0.00741577 12.8104 0.0148315 12.6009 0.021698H12.6004H12.5997H12.5996C12.038 0.0400696 11.5964 0.0545197 10.8225 0.0545197C9.97785 0.0545197 9.50943 0.0381622 8.93568 0.0181122C8.76881 0.0122833 8.59305 0.00613403 8.39652 0C8.23297 0.163559 8.26023 0.735977 8.42378 0.899536C9.5959 1.0631 9.81397 1.44472 10.7135 3.38008L13.0032 8.25938L9.97753 14.4471H9.84123L4.85289 3.08023C4.17143 1.52649 4.2532 1.09035 5.9705 0.899536C6.13405 0.735977 6.13405 0.163559 5.9705 0C5.60661 0.00775146 5.2911 0.0155029 5.00149 0.0225983L4.9923 0.0228271C4.26669 0.0406647 3.70273 0.0545197 2.94479 0.0545197C2.21826 0.0545197 1.77009 0.0424042 1.17288 0.0262604H1.17275H1.17227L1.16739 0.026123L1.16073 0.0259399L1.15163 0.0257111C0.857873 0.0177917 0.527276 0.00889587 0.109883 0C-0.0536684 0.163559 -0.0264124 0.735977 0.137143 0.899536C1.57883 1.026 1.72974 1.38715 2.39729 2.98468C2.44918 3.10886 2.50419 3.24049 2.56316 3.38008L8.50556 17.3365C8.66911 17.7454 8.85992 17.9635 9.13251 17.9635C9.43235 17.9635 9.62316 17.7454 9.78672 17.3365L13.7937 9.4315L17.4737 17.3365C17.61 17.7454 17.828 17.9635 18.1006 17.9635C18.4005 17.9635 18.564 17.7454 18.7548 17.3365L25.1879 3.4346C25.2333 3.33516 25.2771 3.23692 25.3203 3.1402L25.321 3.13873C25.8218 2.01659 26.2308 1.10022 27.8865 0.899536C28.05 0.735977 28.05 0.163559 27.8865 0C27.5507 0.00839233 27.2538 0.0167847 26.9852 0.0243988L26.9785 0.0245819C26.3782 0.0415649 25.92 0.0545197 25.4877 0.0545197C25.0747 0.0545197 24.5908 0.0426636 23.9424 0.0267792H23.9422H23.9419H23.9414H23.9405L23.9359 0.0266876C23.6015 0.0184784 23.2235 0.00923157 22.7891 0C22.6256 0.163559 22.6256 0.735977 22.7891 0.899536C24.5609 1.03583 24.5882 1.7718 23.9612 3.24377L18.7821 14.4471H18.6458L15.1567 7.25081L17.1466 3.4346C17.828 2.18069 18.4277 1.1176 19.8452 0.899536C20.0087 0.735977 20.0087 0.163559 19.8452 0L19.8439 4.57764e-05C19.1629 0.0272827 18.4819 0.0545197 17.8553 0.0545197C17.4421 0.0545197 17.0762 0.0426636 16.586 0.0267792H16.5858H16.5854C16.332 0.0185699 16.0454 0.00927734 15.7019 0C15.5383 0.163559 15.5383 0.735977 15.7019 0.899536ZM29.8686 15.9211C29.8686 16.4986 30.1311 16.8398 30.9711 16.9185L31.5223 16.9721C31.6011 16.9721 31.6798 17.0236 31.6798 17.1286V17.6798L31.6536 17.7333C31.6536 17.7333 29.6587 17.6798 28.8449 17.6798C28.11 17.6798 26.0625 17.7333 26.0625 17.7333L26.01 17.6798V17.1286C26.01 17.0236 26.0888 16.9721 26.1938 16.9721L26.7188 16.9185C27.585 16.8398 27.8475 16.4198 27.8475 15.9211V7.18013C27.8475 6.60367 27.5315 6.44415 26.7188 6.36742L26.1938 6.31291C26.0888 6.31291 26.01 6.28868 26.01 6.20792V5.60318L26.0363 5.55067C26.0363 5.55067 28.11 5.60318 28.9237 5.60318C29.6324 5.60318 31.6536 5.55067 31.6536 5.55067L31.6798 5.60318V6.18065C31.6798 6.2594 31.6273 6.31189 31.5223 6.31189L30.9711 6.3654C30.1574 6.44315 29.8686 6.65414 29.8686 7.18013V15.9211ZM38.7176 16.9185C37.9564 16.7873 37.6152 16.4986 37.6152 15.9211V12.0332C38.1926 12.0332 38.6126 12.1624 39.0064 12.6884L41.92 16.3118C42.2875 16.7318 42.3137 17.0185 42.3137 17.3607V17.6757L42.34 17.702C42.34 17.702 43.285 17.6757 43.9412 17.6757C44.6762 17.6757 46.0674 17.702 46.0674 17.702L46.1461 17.6757V17.1245C46.1461 17.0458 46.0411 16.9933 45.9624 16.967L45.8311 16.9418C45.3061 16.8378 44.6762 16.6793 44.3612 16.3128L40.3976 11.5355C40.2663 11.378 40.1613 11.2477 40.1613 11.0902C40.1613 10.8792 40.3188 10.5915 40.7651 10.118L43.0225 7.52037C43.9656 6.44629 44.6733 6.39186 45.6938 6.31337L45.6999 6.31291C45.8311 6.31291 45.9099 6.26041 45.9099 6.18166V5.57692L45.8311 5.55168C45.8311 5.55168 44.6762 5.60419 43.9937 5.60419C43.2325 5.60419 41.1063 5.55168 41.1063 5.55168L41.08 5.57692V6.18166C41.08 6.26041 41.1325 6.28766 41.2375 6.31291C41.7625 6.39267 41.9988 6.6279 41.9988 6.8389C41.9988 7.33864 41.185 8.30785 40.1351 9.46381C38.9801 10.6985 38.4814 11.1438 37.6152 11.1438V7.18013C37.6152 6.65414 37.9039 6.5219 38.7176 6.3654L39.0064 6.31189C39.1114 6.28564 39.1639 6.2594 39.1639 6.18065V5.60318L39.1376 5.55067C39.1376 5.55067 37.4849 5.60318 36.7489 5.60318C35.9352 5.60318 33.7828 5.55067 33.7828 5.55067L33.7565 5.60318V6.20792C33.7565 6.28868 33.8353 6.31291 33.9403 6.31291L34.4653 6.36742C35.3052 6.44415 35.594 6.60367 35.594 7.18013V15.9211C35.594 16.4198 35.2527 16.8398 34.4653 16.9185L33.9403 16.9721C33.8353 16.9721 33.7565 17.0236 33.7565 17.1286V17.6798L33.809 17.7333C33.809 17.7333 35.9615 17.6798 36.6964 17.6798C37.4839 17.6798 39.1376 17.7333 39.1376 17.7333L39.1639 17.6798V17.1286C39.1639 17.0236 39.0851 16.9973 39.0064 16.9721L38.7176 16.9185ZM51.7665 15.9211C51.7665 16.4986 52.0289 16.8398 52.8689 16.9185L53.4201 16.9721C53.4989 16.9721 53.5776 17.0236 53.5776 17.1286V17.6798L53.5514 17.7333C53.5514 17.7333 51.5565 17.6798 50.7427 17.6798C50.0078 17.6798 47.9603 17.7333 47.9603 17.7333L47.9078 17.6798V17.1286C47.9078 17.0236 47.9866 16.9721 48.0916 16.9721L48.6166 16.9185C49.4828 16.8398 49.7453 16.4198 49.7453 15.9211V7.18013C49.7453 6.60367 49.4303 6.44415 48.6166 6.36742L48.0916 6.31291C47.9866 6.31291 47.9078 6.28868 47.9078 6.20792V5.60318L47.9341 5.55067C47.9341 5.55067 50.0078 5.60318 50.8215 5.60318C51.5302 5.60318 53.5514 5.55067 53.5514 5.55067L53.5776 5.60318V6.18065C53.5776 6.2594 53.5251 6.31189 53.4201 6.31189L52.8689 6.3654C52.0552 6.44315 51.7665 6.65414 51.7665 7.18013V15.9211ZM55.8633 6.3129C57.097 6.39165 57.4383 6.41791 57.4383 7.23163L57.4403 16.0503C57.4403 16.549 57.1778 16.7853 56.3641 16.8903L55.8129 16.969C55.7079 16.9953 55.6554 17.0215 55.6554 17.1265V17.6777L55.6816 17.7303C55.6816 17.7303 57.6503 17.6777 58.3853 17.6777C59.199 17.6777 61.2989 17.7303 61.2989 17.7303L61.3242 17.6777V17.1265C61.3242 17.0226 61.2454 16.9953 61.1404 16.969L60.6144 16.8903C59.7734 16.76 59.4585 16.6278 59.4585 16.0503V12.535C59.932 12.7439 60.4569 12.7974 61.1132 12.7974C64.8385 12.7974 65.5997 10.331 65.5997 8.75508C65.5997 7.38811 64.9173 5.55168 61.1919 5.55168C60.6725 5.55168 60.1306 5.5667 59.6264 5.58067L59.6248 5.58072C59.1868 5.59285 58.7772 5.60419 58.4357 5.60419C57.993 5.60419 57.2838 5.58643 56.6904 5.57156C56.2636 5.56087 55.8968 5.55168 55.7321 5.55168L55.6796 5.57793V6.18166C55.6796 6.23517 55.7058 6.3129 55.8633 6.3129ZM61.1657 12.0362C60.6407 12.0362 59.9844 12.011 59.4595 11.8L59.4585 7.23264C59.4585 6.55016 59.7734 6.31392 61.0344 6.31392C62.4761 6.31392 63.4998 6.81265 63.4998 9.07007C63.4998 11.0892 62.7416 12.0362 61.1657 12.0362ZM70.1206 17.6798C69.3332 17.6798 67.523 17.7333 67.523 17.7333L67.4957 17.6798V17.1023C67.4957 17.0508 67.523 16.9721 67.6532 16.9721L68.258 16.9185C69.0727 16.8398 69.3089 16.3148 69.3089 15.7909V7.12865C69.3089 6.5229 68.9929 6.41891 68.258 6.36742L67.6532 6.31291C67.4957 6.28868 67.4957 6.23517 67.4957 6.20792V5.60318L67.523 5.55067C67.523 5.55067 69.5694 5.60318 70.3569 5.60318H74.2155C75.003 5.60318 76.8677 5.55067 76.8677 5.55067L76.9212 5.60318C76.9464 6.73189 77.1302 7.75761 77.3149 8.75407L76.6597 8.85907C76.372 7.88684 75.8732 6.49664 74.1933 6.49664H72.0934C71.5946 6.49664 71.3321 6.68039 71.3321 7.12563V10.9328H73.2998C74.0358 10.9328 74.2185 10.6178 74.3245 10.0928L74.481 9.54155C74.481 9.4628 74.5345 9.40929 74.6385 9.40929H75.0837C75.1372 9.40929 75.1372 9.43655 75.1372 9.48804C75.1231 9.6409 75.1054 9.80486 75.087 9.97499L75.0869 9.97563C75.0359 10.4482 74.9798 10.9685 74.9798 11.4315C74.9798 11.8683 75.0264 12.2594 75.0731 12.6504C75.0964 12.8459 75.1197 13.0414 75.1372 13.2427L75.0837 13.2962H74.6385C74.5083 13.2962 74.4538 13.2427 74.4538 13.1639L74.3225 12.5875C74.2175 12.0615 73.9813 11.7727 73.2968 11.7727H71.3301V15.7898C71.3301 16.2876 71.6168 16.7863 72.0913 16.7863H74.585C75.9237 16.7863 76.6597 15.9463 76.9737 14.5804L77.6289 14.6591L77.1029 17.6768L77.0504 17.7292C77.0504 17.7292 75.5017 17.6768 74.7142 17.6768L70.1206 17.6798ZM80.5961 16.9185L79.9923 16.9721C79.8883 16.9721 79.8348 17.0508 79.8368 17.1265V17.6777L79.8631 17.7303C79.8631 17.7303 81.858 17.6777 82.6465 17.6777C82.9587 17.6777 83.2862 17.6855 83.6899 17.695C84.3384 17.7103 85.1836 17.7303 86.4779 17.7303C89.3905 17.7303 92.6464 16.3673 92.6464 11.7727C92.6464 8.28159 90.493 5.55168 86.1094 5.55168C85.7411 5.55168 84.9059 5.56697 84.137 5.58105C83.481 5.59306 82.8732 5.60419 82.6445 5.60419C82.171 5.60419 79.8601 5.55168 79.8601 5.55168L79.8348 5.60419V6.18166C79.8348 6.26041 79.9156 6.3129 80.0206 6.3129L80.5961 6.36742L80.6556 6.3727C81.4699 6.44453 81.647 6.46016 81.647 7.12865V15.7909C81.647 16.6036 81.3845 16.8398 80.5961 16.9185ZM90.3627 12.22C90.3627 15.8969 88.7333 16.9721 85.8469 16.9721C83.8509 16.9721 83.6682 16.5238 83.6682 15.7909V7.12865C83.6682 6.4704 84.3244 6.3129 85.3482 6.3129C89.758 6.3129 90.3627 9.49106 90.3627 12.22ZM98.8432 15.9211C98.8432 16.4986 99.1057 16.8398 99.9457 16.9185L100.497 16.9721C100.576 16.9721 100.654 17.0236 100.654 17.1286V17.6798L100.628 17.7333C100.628 17.7333 98.6332 17.6798 97.8205 17.6798C97.0845 17.6798 95.0381 17.7333 95.0381 17.7333L94.9846 17.6798V17.1286C94.9846 17.0236 95.0634 16.9721 95.1684 16.9721L95.6943 16.9185C96.5596 16.8398 96.8231 16.4198 96.8231 15.9211V7.18013C96.8231 6.60367 96.5071 6.44415 95.6943 6.36742L95.1684 6.31291C95.0634 6.31291 94.9846 6.28868 94.9846 6.20792V5.60318L95.0109 5.55067C95.0109 5.55067 97.0845 5.60318 97.8962 5.60318C98.605 5.60318 100.627 5.55067 100.627 5.55067L100.652 5.60318V6.18065C100.652 6.2594 100.599 6.31189 100.495 6.31189L99.9437 6.3654C99.1299 6.44315 98.8412 6.65414 98.8412 7.18013L98.8432 15.9211ZM107.691 16.9721L106.93 16.9186C105.959 16.8398 105.618 16.2613 105.88 15.6031L107.403 11.7959C107.534 11.4557 107.691 11.3507 108.321 11.3507H113.781L115.382 15.7878C115.646 16.5218 115.276 16.8388 114.28 16.9165L113.545 16.969C113.411 16.969 113.359 17.0478 113.359 17.18V17.6778L113.384 17.7303C113.384 17.7303 115.958 17.6778 116.876 17.6778C117.9 17.6778 119.921 17.7303 119.921 17.7303L120 17.6778V17.18C120 17.0478 119.869 16.969 119.738 16.969L119.449 16.9438C118.399 16.8388 117.874 16.4461 117.505 15.4213L112.124 1.19434C111.915 0.669357 111.783 0.405853 111.417 0.405853C111.022 0.405853 110.811 0.669357 110.523 1.35182L104.697 15.0024C103.962 16.6823 103.308 16.8933 102.152 16.9721C102.019 16.9721 101.941 17.0508 101.941 17.1811V17.6798L101.994 17.7333C101.994 17.7333 103.674 17.6798 104.358 17.6798C104.988 17.6798 107.849 17.7333 107.849 17.7333L107.901 17.6798V17.1811C107.901 17.0508 107.796 16.9721 107.691 16.9721ZM110.815 3.24176L113.361 10.2493V10.2503H108.793C108.215 10.2503 108.032 10.1725 108.137 9.90904L110.762 3.24176H110.815Z" fill="black"/>
</svg>

<svg xmlns="http://www.w3.org/2000/svg" width="120" height="18" fill="none"><path fill="#000" fill-rule="evenodd" d="M15.702.9c1.172.163 1.036.763.218 2.344L14.475 5.97l-.136-.137-1.336-2.753c-.736-1.554-.845-2.017.3-2.18.164-.164.164-.736 0-.9-.266.007-.493.015-.702.022H12.6c-.562.018-1.004.033-1.777.033-.845 0-1.314-.017-1.887-.037L8.396 0c-.163.164-.136.736.028.9 1.172.163 1.39.545 2.29 2.48l2.29 4.88-3.026 6.187H9.84L4.853 3.08C4.17 1.526 4.253 1.09 5.97.9c.163-.164.163-.736 0-.9L5 .023h-.009c-.725.018-1.29.032-2.047.032-.727 0-1.175-.013-1.772-.029H1.15C.859.018.528.009.11 0c-.164.164-.136.736.027.9 1.442.126 1.593.487 2.26 2.085l.166.395 5.943 13.957c.163.408.354.627.627.627.3 0 .49-.219.654-.627l4.007-7.905 3.68 7.905c.136.408.354.627.627.627.3 0 .463-.219.654-.627l6.433-13.902c.045-.1.09-.198.132-.295l.001-.001c.5-1.122.91-2.039 2.566-2.24.163-.163.163-.735 0-.899l-.902.024h-.006c-.6.018-1.059.03-1.491.03-.413 0-.897-.011-1.546-.027h-.006C23.602.018 23.224.009 22.789 0c-.163.164-.163.736 0 .9 1.772.136 1.8.872 1.172 2.344l-5.179 11.203h-.136l-3.49-7.196 1.99-3.816c.682-1.254 1.282-2.317 2.7-2.535.163-.164.163-.736 0-.9h-.002c-.681.027-1.362.055-1.989.055-.413 0-.779-.012-1.269-.028-.254-.008-.54-.018-.884-.027-.164.164-.164.736 0 .9ZM29.869 15.92c0 .578.262.919 1.102.998l.551.053c.08 0 .158.052.158.157v.55l-.026.054s-1.995-.053-2.81-.053c-.734 0-2.782.053-2.782.053l-.052-.053v-.551c0-.105.079-.157.184-.157l.525-.053c.866-.08 1.128-.5 1.128-.998v-8.74c0-.577-.316-.737-1.128-.814l-.525-.054c-.105 0-.184-.024-.184-.105v-.605l.026-.052s2.074.052 2.888.052c.708 0 2.73-.052 2.73-.052l.026.052v.578c0 .078-.053.13-.158.13l-.55.054c-.815.078-1.103.29-1.103.815v8.741Zm8.849.998c-.762-.132-1.103-.42-1.103-.998v-3.888c.578 0 .998.13 1.391.655l2.914 3.624c.367.42.394.706.394 1.049v.315l.026.026s.945-.026 1.601-.026c.735 0 2.126.026 2.126.026l.08-.026v-.551c0-.08-.106-.132-.185-.158l-.13-.025c-.526-.104-1.156-.263-1.47-.63l-3.964-4.777c-.132-.157-.237-.287-.237-.445 0-.21.158-.498.604-.972l2.258-2.598c.943-1.074 1.65-1.128 2.67-1.207h.007c.131 0 .21-.053.21-.131v-.605l-.079-.025s-1.155.052-1.837.052c-.761 0-2.888-.052-2.888-.052l-.026.025v.605c0 .078.053.106.157.13.526.08.762.316.762.527 0 .5-.814 1.469-1.864 2.625-1.155 1.234-1.654 1.68-2.52 1.68V7.18c0-.526.289-.658 1.103-.815l.288-.053c.105-.026.158-.053.158-.131v-.578l-.026-.052s-1.653.052-2.39.052c-.813 0-2.965-.052-2.965-.052l-.026.052v.605c0 .08.078.105.183.105l.525.054c.84.077 1.129.237 1.129.813v8.741c0 .499-.341.919-1.129.998l-.525.053c-.105 0-.183.052-.183.157v.55l.052.054s2.153-.053 2.887-.053c.788 0 2.442.053 2.442.053l.026-.053v-.551c0-.105-.079-.132-.158-.157l-.288-.053Zm13.048-.998c0 .578.263.919 1.103.998l.551.053c.079 0 .158.052.158.157v.55l-.027.054s-1.995-.053-2.808-.053c-.735 0-2.783.053-2.783.053l-.052-.053v-.551c0-.105.079-.157.184-.157l.525-.053c.866-.08 1.128-.5 1.128-.998v-8.74c0-.577-.315-.737-1.128-.814l-.525-.054c-.105 0-.184-.024-.184-.105v-.605l.026-.052s2.074.052 2.888.052c.708 0 2.73-.052 2.73-.052l.026.052v.578c0 .078-.053.13-.158.13l-.551.054c-.814.078-1.102.29-1.102.815v8.741Zm4.097-9.608c1.234.079 1.575.105 1.575.919l.002 8.818c0 .499-.262.735-1.076.84l-.551.079c-.105.026-.158.052-.158.157v.552l.027.052s1.968-.052 2.703-.052c.814 0 2.914.052 2.914.052l.025-.052v-.552c0-.103-.079-.13-.184-.157l-.526-.079c-.84-.13-1.155-.262-1.155-.84v-3.515c.473.209.998.262 1.654.262 3.725 0 4.487-2.466 4.487-4.042 0-1.367-.683-3.203-4.408-3.203-.52 0-1.061.015-1.566.029h-.001a45.95 45.95 0 0 1-1.19.023c-.442 0-1.151-.018-1.745-.032-.426-.011-.793-.02-.958-.02l-.052.026v.604c0 .053.026.13.183.13Zm5.303 5.723c-.525 0-1.182-.025-1.706-.236l-.002-4.567c0-.683.315-.92 1.576-.92 1.442 0 2.466.5 2.466 2.757 0 2.02-.758 2.966-2.334 2.966Zm8.955 5.644c-.788 0-2.598.053-2.598.053l-.027-.053v-.578c0-.051.027-.13.157-.13l.605-.053c.815-.08 1.05-.604 1.05-1.128V7.129c0-.606-.315-.71-1.05-.762l-.605-.054c-.157-.024-.157-.078-.157-.105v-.605l.027-.052s2.046.052 2.834.052h3.859c.787 0 2.652-.052 2.652-.052l.053.052c.025 1.129.21 2.155.394 3.151l-.655.105c-.288-.972-.787-2.362-2.467-2.362h-2.1c-.498 0-.76.183-.76.629v3.807H73.3c.736 0 .919-.315 1.025-.84l.156-.551c0-.08.053-.133.157-.133h.446c.053 0 .053.028.053.079-.014.153-.032.317-.05.487-.051.473-.107.994-.107 1.457 0 .436.046.827.093 1.218.023.196.047.391.064.593l-.053.053h-.446c-.13 0-.184-.053-.184-.132l-.131-.576c-.105-.526-.342-.815-1.026-.815H71.33v4.017c0 .498.287.996.761.996h2.494c1.339 0 2.075-.84 2.389-2.206l.655.08-.526 3.017-.053.052s-1.548-.052-2.336-.052l-4.593.003Zm10.475-.761-.604.053a.148.148 0 0 0-.155.154v.552l.026.052s1.995-.052 2.784-.052c.312 0 .64.008 1.043.017.648.015 1.494.035 2.788.035 2.913 0 6.168-1.363 6.168-5.957 0-3.491-2.153-6.221-6.537-6.221-.368 0-1.203.015-1.972.03-.656.011-1.264.022-1.493.022-.473 0-2.784-.052-2.784-.052l-.025.052v.578c0 .078.08.13.186.13l.575.055.06.006c.814.072.991.087.991.756v8.662c0 .813-.263 1.049-1.05 1.128Zm9.767-4.699c0 3.677-1.63 4.752-4.516 4.752-1.996 0-2.179-.448-2.179-1.181V7.129c0-.659.656-.816 1.68-.816 4.41 0 5.015 3.178 5.015 5.907Zm8.48 3.701c0 .578.263.919 1.103.998l.551.053c.079 0 .157.052.157.157v.55l-.026.054s-1.995-.053-2.808-.053c-.735 0-2.782.053-2.782.053l-.053-.053v-.551c0-.105.078-.157.183-.157l.526-.053c.866-.08 1.13-.5 1.13-.998v-8.74c0-.577-.317-.737-1.13-.814l-.526-.054c-.105 0-.183-.024-.183-.105v-.605l.026-.052s2.074.052 2.885.052c.709 0 2.731-.052 2.731-.052l.025.052v.578c0 .078-.053.13-.157.13l-.551.054c-.814.078-1.103.29-1.103.815l.002 8.741Zm8.848 1.051-.761-.053c-.971-.08-1.312-.658-1.05-1.316l1.523-3.807c.131-.34.288-.445.918-.445h5.46l1.601 4.437c.264.734-.106 1.05-1.102 1.128l-.735.053c-.134 0-.186.079-.186.211v.498l.025.052s2.574-.052 3.492-.052c1.024 0 3.045.052 3.045.052l.079-.052v-.498c0-.132-.131-.211-.262-.211l-.289-.025c-1.05-.105-1.575-.498-1.944-1.523l-5.381-14.227c-.209-.525-.341-.788-.707-.788-.395 0-.606.263-.894.946l-5.826 13.65c-.735 1.68-1.389 1.891-2.545 1.97-.133 0-.211.079-.211.21v.498l.053.053s1.68-.053 2.364-.053c.63 0 3.491.053 3.491.053l.052-.053v-.499a.207.207 0 0 0-.21-.209Zm3.124-13.73 2.546 7.007v.001h-4.568c-.578 0-.761-.078-.656-.341l2.625-6.667h.053Z" clip-rule="evenodd"/></svg>
